X:68
T:Joseph Ward’s Hornpipe,aka. JBu.68
O:England,South Yorkshire
S:Joshua Burnett’s MS,c1835,S.Yorkshire
M:4/4
L:1/8
Q:1/2=90
C:untitled in MS, named by Paul Davenport
R:.hornpipe
Z:vmp.R.Greig.2011
K:A
“qu.D in MS”E2|AGAB cAGA|cAeA fAeA|AcBd cedf|fdBA AGFE|
AGAB cAGA|cAeA fAeA|AcBd cedf|dcBGA2:|
|:”qu in MS”d2|edef efge|agae fedc|defe fdBG|GBdB GFED|
agae fefd|edec dcdB|cAdB ecfd|cBAG A2:|

